!!!ONR: No. 24
!! From Harold Courlander, "Haiti Singing"
!! Chapel Hill: University of North Carolina Press, 1939
!! Copyright University of North Carolina Press
!!!ENC: D. Huron
**kern
*clefG2
*k[b-]
*M2/4
=1-
8r
8cc
8cc
8cc
=
8cc
4.ee
=
8ee
8ff
8ee
8ee
=
8dd
[4.ee
=
8ee]
8ff
8aa
8ff
=
8dd
8dd
8ee
[8cc
=
8cc]
8dd
8ee
8ee
=
8dd
[4.dd
=
8dd]
8f
8a
8a
=
8cc
4.cc
=
8b-
8b-
8a
8a
=
8g
[4.a
=
8a]
8f
8a
8a
=
8cc
4.cc
=
8b-
8b-
8a
8a
=
8g
[4.a
=
2a]
==
*-
